X: 42614
T: Whinny Hills Of Leitrim, The
R: slip jig
M: 9/8
K: Dmajor
|:ABA dcA d2 d|A A2 dcA GFG|A A2 dcA d2 e|faf efe dcA:|
|:GAB GBd g2 g|GAB GAG FED|GAB GBd g2 g|fgf efe dBA:|

